X:3888
T:Danza Prima
R:Danza Prima
C:Tradicional
S:Msica Tradicional Asturiana, (C) Tello & Tito. Asturies, 2001.
S:http://pagina.de/MusTradAst <telloytito@asturies.org>
O:Caliu (Casu)
A:Asturies
Z:ByD IDEA
M:2/8
L:1/8
Q:1/4=104
K:Am
|: A A|A A|d d|c2|B2-|B2|A A|^G A|c c|c B|d d|d d|c c|B2-|A2-|A2 :|
